X: 85
T: Wise Maid 
M: 4/4
L: 1/8
R: reel
K: D
F2FG FEDE|FAAB AFED|d2eg fdec|dBAF BEED|
F2FG FEDE|FAAB AFED|d2eg fdec|dBAG|FDD2 :|
d2AG FDFA|dfaf gfeg|fAdf eAce|dfed cAA2|
BEGB ADFA|dfaf gfed|Bdce dBAG|FGEG FDD2 :|
